src/scalable/apps/utilities-terminal.svg

<?xml version="1.0" encoding="UTF-8" standalone="no"?>
<svg
   xmlns:dc="http://purl.org/dc/elements/1.1/"
   xmlns:cc="http://creativecommons.org/ns#"
   xmlns:rdf="http://www.w3.org/1999/02/22-rdf-syntax-ns#"
   xmlns:svg="http://www.w3.org/2000/svg"
   xmlns="http://www.w3.org/2000/svg"
   xmlns:xlink="http://www.w3.org/1999/xlink"
   xmlns:sodipodi="http://sodipodi.sourceforge.net/DTD/sodipodi-0.dtd"
   xmlns:inkscape="http://www.inkscape.org/namespaces/inkscape"
   version="1.1"
   width="64"
   height="64"
   id="svg4161"
   sodipodi:docname="utilities-terminal.svg"
   inkscape:version="0.92.4 (5da689c313, 2019-01-14)">
  <sodipodi:namedview
     pagecolor="#ffffff"
     bordercolor="#666666"
     borderopacity="1"
     objecttolerance="10"
     gridtolerance="10"
     guidetolerance="10"
     inkscape:pageopacity="0"
     inkscape:pageshadow="2"
     inkscape:window-width="1366"
     inkscape:window-height="715"
     id="namedview38"
     showgrid="false"
     inkscape:zoom="2.6074563"
     inkscape:cx="-13.171852"
     inkscape:cy="57.578422"
     inkscape:window-x="0"
     inkscape:window-y="27"
     inkscape:window-maximized="1"
     inkscape:current-layer="svg4161" />
  <defs
     id="defs4163">
    <linearGradient
       x1="23.99999"
       y1="4.999989"
       x2="23.99999"
       y2="43"
       id="linearGradient3180"
       xlink:href="#linearGradient3924-2-2-5-8"
       gradientUnits="userSpaceOnUse"
       gradientTransform="matrix(1.4324324,0,0,1.4362832,-2.378381,-2.4707781)" />
    <linearGradient
       id="linearGradient3924-2-2-5-8">
      <stop
         id="stop3926-9-4-9-6"
         style="stop-color:#ffffff;stop-opacity:1"
         offset="0" />
      <stop
         id="stop3928-9-8-6-5"
         style="stop-color:#ffffff;stop-opacity:0.23529412"
         offset="0.06316455" />
      <stop
         id="stop3930-3-5-1-7"
         style="stop-color:#ffffff;stop-opacity:0.15686275"
         offset="0.95056331" />
      <stop
         id="stop3932-8-0-4-8"
         style="stop-color:#ffffff;stop-opacity:0.39215687"
         offset="1" />
    </linearGradient>
    <radialGradient
       cx="6.952919"
       cy="9.9571075"
       r="12.671875"
       fx="6.952919"
       fy="9.9571075"
       id="radialGradient3988-3"
       xlink:href="#linearGradient2867-449-88-871-390-598-476-591-434-148-57-177-8-3-3-6-4-8-8-8-5-7-8"
       gradientUnits="userSpaceOnUse"
       gradientTransform="matrix(0,8.3741498,-10.280782,0,135.53887,-79.76307)" />
    <radialGradient
       cx="4.9929786"
       cy="43.5"
       r="2.5"
       fx="4.9929786"
       fy="43.5"
       id="radialGradient3337-2-2"
       xlink:href="#linearGradient3688-166-749-4-0-3-8"
       gradientUnits="userSpaceOnUse"
       gradientTransform="matrix(2.003784,0,0,1.4,27.98813,-17.4)" />
    <linearGradient
       id="linearGradient3688-166-749-4-0-3-8">
      <stop
         id="stop2883-4-0-1-8"
         style="stop-color:#181818;stop-opacity:1"
         offset="0" />
      <stop
         id="stop2885-9-2-9-6"
         style="stop-color:#181818;stop-opacity:0"
         offset="1" />
    </linearGradient>
    <radialGradient
       cx="4.9929786"
       cy="43.5"
       r="2.5"
       fx="4.9929786"
       fy="43.5"
       id="radialGradient3339-1-4"
       xlink:href="#linearGradient3688-464-309-9-2-4-2"
       gradientUnits="userSpaceOnUse"
       gradientTransform="matrix(2.003784,0,0,1.4,-20.01187,-104.4)" />
    <linearGradient
       id="linearGradient3688-464-309-9-2-4-2">
      <stop
         id="stop2889-7-9-6-9"
         style="stop-color:#181818;stop-opacity:1"
         offset="0" />
      <stop
         id="stop2891-6-6-1-7"
         style="stop-color:#181818;stop-opacity:0"
         offset="1" />
    </linearGradient>
    <linearGradient
       id="linearGradient3702-501-757-8-4-1-1">
      <stop
         id="stop2895-8-9-9-1"
         style="stop-color:#181818;stop-opacity:0"
         offset="0" />
      <stop
         id="stop2897-7-8-7-7"
         style="stop-color:#181818;stop-opacity:1"
         offset="0.5" />
      <stop
         id="stop2899-4-5-1-5"
         style="stop-color:#181818;stop-opacity:0"
         offset="1" />
    </linearGradient>
    <linearGradient
       x1="25.058096"
       y1="47.027729"
       x2="25.058096"
       y2="39.999443"
       id="linearGradient4159"
       xlink:href="#linearGradient3702-501-757-8-4-1-1"
       gradientUnits="userSpaceOnUse" />
    <linearGradient
       id="linearGradient2867-449-88-871-390-598-476-591-434-148-57-177-8-3-3-6-4-8-8-8-5-7-8">
      <stop
         id="stop3750-1-0-7-6-6-1-3-9-3-9-2"
         style="stop-color:#404648;stop-opacity:1"
         offset="0" />
      <stop
         id="stop3754-1-8-5-2-7-6-7-1-9-1-0"
         style="stop-color:#0c1011;stop-opacity:1"
         offset="1" />
    </linearGradient>
  </defs>
  <metadata
     id="metadata4166">
    <rdf:RDF>
      <cc:Work
         rdf:about="">
        <dc:format>image/svg+xml</dc:format>
        <dc:type
           rdf:resource="http://purl.org/dc/dcmitype/StillImage" />
        <dc:title />
      </cc:Work>
    </rdf:RDF>
  </metadata>
  <rect
     style="color:#000000;display:inline;overflow:visible;visibility:visible;opacity:0.9;fill:#262b2d;fill-opacity:0.90196078;fill-rule:nonzero;stroke:none;stroke-width:0.99999994;marker:none;enable-background:accumulate"
     id="rect5505-21-3-8-5-2"
     y="5.5"
     x="5.5"
     ry="2.8909092"
     rx="2.8909092"
     height="53"
     width="53" />
  <rect
     style="color:#000000;display:inline;overflow:visible;visibility:visible;opacity:0.7;fill:none;stroke:#000000;stroke-width:0.99999994;stroke-linecap:round;stroke-linejoin:round;stroke-miterlimit:4;stroke-dasharray:none;stroke-dashoffset:0;stroke-opacity:1;marker:none;enable-background:accumulate"
     id="rect5505-21-3-8-9-1-1"
     y="5.5"
     x="5.5"
     ry="2.8909092"
     rx="2.8909092"
     height="53"
     width="53" />
  <path
     style="color:#000000;clip-rule:nonzero;display:inline;overflow:visible;visibility:visible;opacity:1;isolation:auto;mix-blend-mode:normal;color-interpolation:sRGB;color-interpolation-filters:linearRGB;solid-color:#000000;solid-opacity:1;fill:#ffffff;fill-opacity:1;fill-rule:nonzero;stroke:none;stroke-width:5;stroke-linecap:butt;stroke-linejoin:miter;stroke-miterlimit:4;stroke-dasharray:none;stroke-dashoffset:0;stroke-opacity:1;marker:none;color-rendering:auto;image-rendering:auto;shape-rendering:auto;text-rendering:auto;enable-background:accumulate"
     d="M 17 14 L 17 16.142578 C 16.305791 16.29099 15.711001 16.554741 15.242188 16.960938 C 14.509064 17.600991 14.142578 18.479005 14.142578 19.597656 C 14.142578 20.191579 14.254661 20.710296 14.478516 21.154297 C 14.70237 21.598298 15.001997 21.987823 15.376953 22.322266 C 15.751909 22.656708 16.314541 23.005867 17.064453 23.369141 C 17.864733 23.761245 18.392958 24.045856 18.650391 24.224609 C 18.91342 24.403363 19.111781 24.591057 19.246094 24.787109 C 19.380406 24.977395 19.447266 25.197364 19.447266 25.445312 C 19.447266 25.889313 19.294128 26.224335 18.986328 26.449219 C 18.684125 26.674102 18.248563 26.785156 17.677734 26.785156 C 17.202044 26.785156 16.676035 26.708423 16.099609 26.552734 C 15.52878 26.397046 14.828262 26.128619 14 25.748047 L 14 28.238281 C 14.881942 28.682541 15.886413 28.921257 17 28.976562 L 17 31 L 19 31 L 19 28.830078 C 19.7097 28.672943 20.318303 28.411156 20.798828 28.013672 C 21.599108 27.35632 22 26.45617 22 25.314453 C 22 24.48988 21.786652 23.795561 21.361328 23.230469 C 20.936005 22.659611 20.15116 22.092436 19.003906 21.527344 C 18.13647 21.100642 17.584657 20.805986 17.349609 20.644531 C 17.120159 20.47731 16.952034 20.307753 16.845703 20.134766 C 16.739372 19.956012 16.685547 19.748135 16.685547 19.511719 C 16.685547 19.131147 16.817049 18.822354 17.080078 18.585938 C 17.343107 18.349521 17.722364 18.232422 18.214844 18.232422 C 18.628975 18.232422 19.047333 18.286926 19.472656 18.396484 C 19.903576 18.506043 20.446788 18.69783 21.101562 18.974609 L 21.941406 16.890625 C 21.309017 16.608079 20.701162 16.390064 20.119141 16.234375 C 19.759194 16.137156 19.383951 16.081433 19 16.044922 L 19 14 L 17 14 z M 26 33 L 26 35 L 37 35 L 37 33 L 26 33 z "
     id="rect4237" />
</svg>

<svg xmlns="http://www.w3.org/2000/svg" width="64" height="64"><rect style="marker:none" y="5.5" x="5.5" ry="2.891" rx="2.891" height="53" width="53" color="#000" overflow="visible" opacity=".9" fill="#262b2d" fill-opacity=".902"/><rect style="marker:none" y="5.5" x="5.5" ry="2.891" rx="2.891" height="53" width="53" color="#000" overflow="visible" opacity=".7" fill="none" stroke="#000" stroke-linecap="round" stroke-linejoin="round"/><path style="isolation:auto;mix-blend-mode:normal;solid-color:#000;solid-opacity:1;marker:none" d="M17 14v2.143c-.694.148-1.289.412-1.758.818-.733.64-1.1 1.518-1.1 2.637 0 .594.113 1.112.337 1.556.223.444.523.834.898 1.168.375.335.938.684 1.687 1.047.8.392 1.329.677 1.586.856.263.178.462.366.596.562.134.19.201.41.201.658 0 .444-.153.78-.46 1.004-.303.225-.738.336-1.31.336a6.093 6.093 0 0 1-1.577-.232c-.571-.156-1.272-.424-2.1-.805v2.49c.882.445 1.886.683 3 .739V31h2v-2.17c.71-.157 1.318-.419 1.799-.816.8-.658 1.201-1.558 1.201-2.7 0-.824-.213-1.518-.639-2.084-.425-.57-1.21-1.138-2.357-1.703-.868-.426-1.42-.721-1.654-.882a1.873 1.873 0 0 1-.504-.51 1.196 1.196 0 0 1-.16-.623c0-.38.131-.69.394-.926.263-.236.642-.354 1.135-.354.414 0 .832.055 1.258.164.43.11.974.302 1.629.579l.84-2.084c-.633-.283-1.24-.5-1.823-.657a6.736 6.736 0 0 0-1.119-.19V14h-2zm9 19v2h11v-2H26z" color="#000" overflow="visible" fill="#fff"/></svg>
